X:38
T:Bellisle March. BC.38
T:Monk’s March,aka. BC.38
M:C
L:1/8
Q:1/4=100
S:Benjamin Cooke MS.circa 1770, F.Kidson Coll.
R:.March
O:England
A:Uncertain, probably northern
Z:vmp.John Bagnall
K:D
A2|d2 d>f e2 e>g|f2 d’>b a3 g|\
f2 ((3afd) e2 ((3gec)|d2 d>d d2:|!
|:A2|a>bag f2 f2|g>agf {f}e4|\
a>bag f>gf>g|ab (ag/f/) Te3A|!
d2 d>f e2 e>g|f2 d’>b “^cr”a3 g|\
f2 ((3afd) e2 ((3gec) d2 d>d d2:|

